X: 1
T: Glassdrummond
M: 4/4
L: 1/8
R: reel
K: Dmaj
|:e>cAg fdAG|FAD>D D2A,B,|CDEF GBAF|GFED E2z2|
e>cAg fdAF|GBef geag|fdAF ecaf|d2d>e d2z2:||
|:afDa/f/ geAg/e/|fdBc/d/ AGFE|DA,DF Adfa|gfed e2z2|
afDa/f/ geAg/e/|fdcd bagf|geAa/f/ geaf|d2d>e d2z2:||
|:FAfA/F/ GBgA/G/|FAdf bagf|eAaf gfed|c2e2 e2za/f/|
e>cAg fdAF|GBef geag|fdAf ecaf|d2d>e d2z2:||
